src/16/actions/labplot-xy-plot-two-axes-centered-origin.svg

<svg xmlns="http://www.w3.org/2000/svg" width="16" height="16" viewBox="0 0 16 16">
 <defs>
  <style id="current-color-scheme" type="text/css">
   .ColorScheme-Text { color:#5d656b; } .ColorScheme-Highlight { color:#5294e2; }
  </style>
 </defs>
 <path style="fill:currentColor" class="ColorScheme-Text" d="M 13.720703 0 L 11.994141 2.9902344 L 11.994141 5 L 8.9941406 5 L 7.9941406 6 L 7.9941406 1 L 6.9941406 1 L 6.9941406 6.9941406 L 6.9882812 7 L 6.9941406 7 L 5.9921875 8 L -0.005859375 8 L -0.005859375 9 L 4.9902344 9 L 3.9941406 9.9980469 L 2.9941406 10.996094 L 2.9941406 15 L -0.005859375 15 L -0.005859375 16 L 3.9941406 16 L 3.9941406 11.410156 L 4.4042969 11 L 4.40625 11 L 6.40625 9 L 6.9941406 9 L 6.9941406 16 L 7.9941406 16 L 7.9941406 9 L 14.994141 9 L 14.994141 8 L 7.9941406 8 L 7.9941406 7.4121094 L 9.40625 6 L 12.994141 6 L 12.994141 3.2578125 L 14.296875 1 L 15.994141 1 L 15.994141 0 L 13.720703 0 z"/>
</svg>

<svg xmlns="http://www.w3.org/2000/svg" width="16" height="16"><defs><style id="current-color-scheme" type="text/css"></style></defs><path d="M13.72 0l-1.726 2.99V5h-3l-1 1V1h-1v5.994L6.988 7h.006L5.992 8H-.006v1H4.99l-.996.998-1 .998V15h-3v1h4v-4.59l.41-.41h.002l2-2h.588v7h1V9h7V8h-7v-.588L9.406 6h3.588V3.258L14.297 1h1.697V0h-2.273z" fill="currentColor" color="#5d656b"/></svg>
